public/clogo.svg

<?xml version="1.0" encoding="UTF-8" standalone="no"?>
<!-- Uploaded to: SVG Repo, www.svgrepo.com, Transformed by: SVG Repo Mixer Tools -->

<svg
   width="800px"
   height="800px"
   viewBox="0 0 32 32"
   fill="#02dfef"
   version="1.1"
   id="svg2"
   sodipodi:docname="clogo.svg"
   inkscape:version="1.4 (86a8ad7, 2024-10-11)"
   xmlns:inkscape="http://www.inkscape.org/namespaces/inkscape"
   xmlns:sodipodi="http://sodipodi.sourceforge.net/DTD/sodipodi-0.dtd"
   xmlns="http://www.w3.org/2000/svg"
   xmlns:svg="http://www.w3.org/2000/svg">
  <defs
     id="defs2" />
  <sodipodi:namedview
     id="namedview2"
     pagecolor="#ffffff"
     bordercolor="#000000"
     borderopacity="0.25"
     inkscape:showpageshadow="2"
     inkscape:pageopacity="0.0"
     inkscape:pagecheckerboard="0"
     inkscape:deskcolor="#d1d1d1"
     inkscape:zoom="0.97875"
     inkscape:cx="399.48914"
     inkscape:cy="400"
     inkscape:window-width="1920"
     inkscape:window-height="1001"
     inkscape:window-x="-9"
     inkscape:window-y="-9"
     inkscape:window-maximized="1"
     inkscape:current-layer="svg2" />
  <g
     id="SVGRepo_bgCarrier"
     stroke-width="0" />
  <g
     id="SVGRepo_tracerCarrier"
     stroke-linecap="round"
     stroke-linejoin="round" />
  <g
     id="SVGRepo_iconCarrier">
    <title
       id="title1">file_type_cpp3</title>
    <path
       id="path1"
       style="fill:#02dfef"
       d="M 15.968125 1.9980469 A 2.642 2.642 0 0 0 14.59 2.4 C 13.212 3.179 6.3149844 6.9650156 4.2589844 8.1060156 A 2.287 2.287 0 0 0 3 10.231016 L 3 21.77 A 2.4 2.4 0 0 0 3.3 22.99 A 2.434 2.434 0 0 0 4.2539844 23.89 C 6.3099844 25.031 13.208016 28.817016 14.586016 29.596016 A 2.642 2.642 0 0 0 17.348984 29.622031 C 20.808984 27.708031 24.271 25.796984 27.735 23.888984 A 2.444 2.444 0 0 0 28.69 22.988984 A 2.4 2.4 0 0 0 28.99 21.768984 L 28.99 10.232031 L 29 10.232031 A 2.387 2.387 0 0 0 28.682031 8.9879688 A 2.451 2.451 0 0 0 27.746016 8.1089844 C 24.283349 6.1969844 20.818969 4.2860156 17.352969 2.3760156 A 2.642 2.642 0 0 0 15.968125 1.9980469 z M 16.247031 7.7376563 A 8.309 8.309 0 0 1 23.187969 11.86 L 19.572969 13.932969 A 4.121 4.121 0 1 0 19.6 18.02 L 23.211016 20.1 A 8.319 8.319 0 0 1 8.8 20.117031 A 8.216 8.216 0 0 1 7.7 16 A 8.309 8.309 0 0 1 16.247031 7.7376563 z " />
  </g>
</svg>

<!DOCTYPE svg PUBLIC "-//W3C//DTD SVG 1.1//EN" "http://www.w3.org/Graphics/SVG/1.1/DTD/svg11.dtd">

<!-- Uploaded to: SVG Repo, www.svgrepo.com, Transformed by: SVG Repo Mixer Tools -->
<svg width="800px" height="800px" viewBox="0 0 32 32" xmlns="http://www.w3.org/2000/svg" fill="#02dfef">

<g id="SVGRepo_bgCarrier" stroke-width="0"/>

<g id="SVGRepo_tracerCarrier" stroke-linecap="round" stroke-linejoin="round"/>

<g id="SVGRepo_iconCarrier">

<title>file_type_cpp3</title>

<path d="M29,10.232a2.387,2.387,0,0,0-.318-1.244,2.451,2.451,0,0,0-.936-.879Q22.552,5.241,17.353,2.376A2.642,2.642,0,0,0,14.59,2.4c-1.378.779-8.275,4.565-10.331,5.706A2.287,2.287,0,0,0,3,10.231V21.77a2.4,2.4,0,0,0,.3,1.22,2.434,2.434,0,0,0,.954.9c2.056,1.141,8.954,4.927,10.332,5.706a2.642,2.642,0,0,0,2.763.026q5.19-2.871,10.386-5.733a2.444,2.444,0,0,0,.955-.9,2.4,2.4,0,0,0,.3-1.22V10.232" style="fill:#02dfef"/>

<path d="M28.549,23.171a2.126,2.126,0,0,0,.147-.182,2.4,2.4,0,0,0,.3-1.22V10.232a2.387,2.387,0,0,0-.318-1.244c-.036-.059-.089-.105-.13-.16L16,16Z" style="fill:#02dfef"/>

<path d="M28.549,23.171,16,16,3.451,23.171a2.435,2.435,0,0,0,.809.72c2.056,1.141,8.954,4.927,10.332,5.706a2.642,2.642,0,0,0,2.763.026q5.19-2.871,10.386-5.733A2.43,2.43,0,0,0,28.549,23.171Z" style="fill:#02dfef"/>

<path d="M19.6,18.02a4.121,4.121,0,1,1-.027-4.087l3.615-2.073A8.309,8.309,0,0,0,7.7,16a8.216,8.216,0,0,0,1.1,4.117A8.319,8.319,0,0,0,23.211,20.1L19.6,18.02" style="fill:#fff"/>

</g>

</svg>
